X: 11072
T: SPANKING JACK
C: Dibdin.
Q: "Not too fast."
%R: strathspey
B: W. Hamilton "Universal Tune-Book" Vol. 1 Glasgow 1844 p.107 #2
S: http://imslp.org/wiki/Hamilton's_Universal_Tune-Book_(Various)
Z: 2016 John Chambers <jc:trillian.mit.edu>
M: C
L: 1/8
K: Bb
%%stretchstaff 0
%%slurgraces yes
%%graceslurs yes
% - - - - - - - - - - - - - - - - - - - - - - - - -
FF |\
B2d>B e2cf | d2B>G c2A>F |\
B2d>B e2cf | d>Bc>A {c}B2z2 |\
B2d>B e2cf |  {e}d2B>G c2AF |\
B2d>B {f}e2cf |
d>Bc>A {c}B2 zB |\
B2BB B2GB | e2B>_A G2EG |\
c2cd e>fgg | c2cc (BA) zF |\
f2_d>B BAGF | f2_dB (B/A/G/F/) FF |
B2BB B2BB | B2(B/c/_d) B2 zB |"ad lib."\
e4 {B}A2B2 | {G}F4 z2F2 |"tempo"\
B2d>B e2cf | {e}d2B>G {d}c2AF |\
B2d>B {f}e2Hcf | d>Bc>A B2 |]
% - - - - - - - - - - - - - - - - - - - - - - - - -

%%sep 1 1 500
%%sep 1 1 500

